X: 1691
T: Ma Seal's Kreutz Polka
B: australian traditional tunes wiki
M:2/4
L:1/8
R: Polka
Q: 1/4=108
K:Gmaj
V:1 
"G"BA B>G|D2zz/2F/2|GF A>G|"C"E2zE|"D"cB c>A|Fz2F|"G"GF GD|"D"A3 (3D/2E/2F/2|
"G"BA B>G|D2zz/2F/2|GF A>G|"C"E2zE|"G"GG G/2>F/2 G/2>A/2|BB B/2>A/2 G/2>A/2|"D"dc B>A|"G"GGG2||
% abcbook-tune_id 6342d53ae38b8a621fece5de


% abcbook-boost 0
% abcbook-tablature 
% abcbook-transpose 
% abcbook-lastupdated 1665324378225
% abcbook-soundfonts 
% abcbook-repeats 1
% NFF Book 2022
% Bush Traditions recording played by Ray Mulligan

